static/img/kroki/edc96edfc2de87c364a33735941ba1b3.svg

<?xml version="1.0" encoding="us-ascii" standalone="no"?><svg xmlns="http://www.w3.org/2000/svg" xmlns:xlink="http://www.w3.org/1999/xlink" contentStyleType="text/css" height="1138px" preserveAspectRatio="none" style="width:362px;height:1138px;" version="1.1" viewBox="0 0 362 1138" width="362px" zoomAndPan="magnify"><defs/><g><!--class azure_key_vault_attributes--><g id="elem_azure_key_vault_attributes"><rect codeLine="23" fill="#3D176E" height="231.8672" id="azure_key_vault_attributes" rx="2.5" ry="2.5" style="stroke:#000D19;stroke-width:0.5;" width="270" x="46" y="899.41"/><ellipse cx="61" cy="919.3045" fill="#ADD1B2" rx="11" ry="11" style="stroke:#181818;stroke-width:1.0;"/><path d="M63.9688,924.9452 Q63.3906,925.242 62.75,925.3827 Q62.1094,925.5389 61.4063,925.5389 Q58.9063,925.5389 57.5781,923.8983 Q56.2656,922.242 56.2656,919.117 Q56.2656,915.992 57.5781,914.3358 Q58.9063,912.6795 61.4063,912.6795 Q62.1094,912.6795 62.75,912.8358 Q63.4063,912.992 63.9688,913.2889 L63.9688,916.0077 Q63.3438,915.4295 62.75,915.1639 Q62.1563,914.8827 61.5313,914.8827 Q60.1875,914.8827 59.5,915.9608 Q58.8125,917.0233 58.8125,919.117 Q58.8125,921.2108 59.5,922.2889 Q60.1875,923.3514 61.5313,923.3514 Q62.1563,923.3514 62.75,923.0858 Q63.3438,922.8045 63.9688,922.2264 L63.9688,924.9452 Z " fill="#000000"/><text fill="#D9B8FF" font-family="Helvetica" font-size="17" lengthAdjust="spacing" textLength="228" x="80" y="925.1898">azure_key_vault_attributes</text><line style="stroke:#000D19;stroke-width:0.5;" x1="47" x2="315" y1="939.1991" y2="939.1991"/><text fill="#D9B8FF" font-family="sans-serif" font-size="14" font-weight="bold" lengthAdjust="spacing" textLength="61" x="57" y="961.1942">created</text><text fill="#D9B8FF" font-family="sans-serif" font-size="14" lengthAdjust="spacing" textLength="70" x="118" y="961.1942">: datetime</text><text fill="#D9B8FF" font-family="sans-serif" font-size="14" font-weight="bold" lengthAdjust="spacing" textLength="63" x="57" y="987.4911">enabled</text><text fill="#D9B8FF" font-family="sans-serif" font-size="14" lengthAdjust="spacing" textLength="65" x="120" y="987.4911">: boolean</text><text fill="#D9B8FF" font-family="sans-serif" font-size="14" font-weight="bold" lengthAdjust="spacing" textLength="50" x="57" y="1013.7879">expire</text><text fill="#D9B8FF" font-family="sans-serif" font-size="14" lengthAdjust="spacing" textLength="70" x="107" y="1013.7879">: datetime</text><text fill="#D9B8FF" font-family="sans-serif" font-size="14" font-weight="bold" lengthAdjust="spacing" textLength="85" x="57" y="1040.0848">exportable</text><text fill="#D9B8FF" font-family="sans-serif" font-size="14" lengthAdjust="spacing" textLength="65" x="142" y="1040.0848">: boolean</text><text fill="#D9B8FF" font-family="sans-serif" font-size="14" font-weight="bold" lengthAdjust="spacing" textLength="26" x="57" y="1066.3817">nbf</text><text fill="#D9B8FF" font-family="sans-serif" font-size="14" lengthAdjust="spacing" textLength="44" x="83" y="1066.3817">: int64</text><text fill="#D9B8FF" font-family="sans-serif" font-size="14" font-weight="bold" lengthAdjust="spacing" textLength="115" x="57" y="1092.6786">recovery_level</text><text fill="#D9B8FF" font-family="sans-serif" font-size="14" lengthAdjust="spacing" textLength="48" x="172" y="1092.6786">: string</text><text fill="#D9B8FF" font-family="sans-serif" font-size="14" font-weight="bold" lengthAdjust="spacing" textLength="65" x="57" y="1118.9754">updated</text><text fill="#D9B8FF" font-family="sans-serif" font-size="14" lengthAdjust="spacing" textLength="70" x="122" y="1118.9754">: datetime</text></g><!--class azure_key_vault_secret--><g id="elem_azure_key_vault_secret"><rect codeLine="32" fill="#3D176E" height="179.2734" id="azure_key_vault_secret" rx="2.5" ry="2.5" style="stroke:#000D19;stroke-width:0.5;" width="348" x="7" y="660.14"/><ellipse cx="73.75" cy="680.0345" fill="#ADD1B2" rx="11" ry="11" style="stroke:#181818;stroke-width:1.0;"/><path d="M76.7188,685.6752 Q76.1406,685.972 75.5,686.1127 Q74.8594,686.2689 74.1563,686.2689 Q71.6563,686.2689 70.3281,684.6283 Q69.0156,682.972 69.0156,679.847 Q69.0156,676.722 70.3281,675.0658 Q71.6563,673.4095 74.1563,673.4095 Q74.8594,673.4095 75.5,673.5658 Q76.1563,673.722 76.7188,674.0189 L76.7188,676.7377 Q76.0938,676.1595 75.5,675.8939 Q74.9063,675.6127 74.2813,675.6127 Q72.9375,675.6127 72.25,676.6908 Q71.5625,677.7533 71.5625,679.847 Q71.5625,681.9408 72.25,683.0189 Q72.9375,684.0814 74.2813,684.0814 Q74.9063,684.0814 75.5,683.8158 Q76.0938,683.5345 76.7188,682.9564 L76.7188,685.6752 Z " fill="#000000"/><text fill="#D9B8FF" font-family="Helvetica" font-size="17" lengthAdjust="spacing" textLength="196" x="99.25" y="685.9198">azure_key_vault_secret</text><line style="stroke:#000D19;stroke-width:0.5;" x1="8" x2="354" y1="699.9291" y2="699.9291"/><text fill="#D9B8FF" font-family="sans-serif" font-size="14" font-weight="bold" lengthAdjust="spacing" textLength="103" x="18" y="721.9242">content_type</text><text fill="#D9B8FF" font-family="sans-serif" font-size="14" lengthAdjust="spacing" textLength="48" x="121" y="721.9242">: string</text><text fill="#D9B8FF" font-family="sans-serif" font-size="14" font-weight="bold" lengthAdjust="spacing" textLength="135" x="18" y="748.2211">secret_attributes</text><text fill="#D9B8FF" font-family="sans-serif" font-size="14" lengthAdjust="spacing" textLength="191" x="153" y="748.2211">: azure_key_vault_attributes</text><text fill="#D9B8FF" font-family="sans-serif" font-size="14" font-weight="bold" lengthAdjust="spacing" textLength="79" x="18" y="774.5179">secret_uri</text><text fill="#D9B8FF" font-family="sans-serif" font-size="14" lengthAdjust="spacing" textLength="48" x="97" y="774.5179">: string</text><text fill="#D9B8FF" font-family="sans-serif" font-size="14" font-weight="bold" lengthAdjust="spacing" textLength="186" x="18" y="800.8148">secret_uri_with_version</text><text fill="#D9B8FF" font-family="sans-serif" font-size="14" lengthAdjust="spacing" textLength="48" x="204" y="800.8148">: string</text><text fill="#D9B8FF" font-family="sans-serif" font-size="14" font-weight="bold" lengthAdjust="spacing" textLength="42" x="18" y="827.1117">value</text><text fill="#D9B8FF" font-family="sans-serif" font-size="14" lengthAdjust="spacing" textLength="48" x="60" y="827.1117">: string</text></g><!--class microsoft_resource--><g id="elem_microsoft_resource"><rect codeLine="39" fill="#3D176E" height="100.3828" id="microsoft_resource" rx="2.5" ry="2.5" style="stroke:#000D19;stroke-width:0.5;" width="214" x="74" y="438.76"/><ellipse cx="95.3" cy="458.6545" fill="#ADD1B2" rx="11" ry="11" style="stroke:#181818;stroke-width:1.0;"/><path d="M98.2688,464.2952 Q97.6906,464.592 97.05,464.7327 Q96.4094,464.8889 95.7063,464.8889 Q93.2063,464.8889 91.8781,463.2483 Q90.5656,461.592 90.5656,458.467 Q90.5656,455.342 91.8781,453.6858 Q93.2063,452.0295 95.7063,452.0295 Q96.4094,452.0295 97.05,452.1858 Q97.7063,452.342 98.2688,452.6389 L98.2688,455.3577 Q97.6438,454.7795 97.05,454.5139 Q96.4563,454.2327 95.8313,454.2327 Q94.4875,454.2327 93.8,455.3108 Q93.1125,456.3733 93.1125,458.467 Q93.1125,460.5608 93.8,461.6389 Q94.4875,462.7014 95.8313,462.7014 Q96.4563,462.7014 97.05,462.4358 Q97.6438,462.1545 98.2688,461.5764 L98.2688,464.2952 Z " fill="#000000"/><text fill="#D9B8FF" font-family="Helvetica" font-size="17" lengthAdjust="spacing" textLength="158" x="115.7" y="464.5398">microsoft_resource</text><line style="stroke:#000D19;stroke-width:0.5;" x1="75" x2="287" y1="478.5491" y2="478.5491"/><text fill="#D9B8FF" font-family="sans-serif" font-size="14" font-weight="bold" lengthAdjust="spacing" textLength="35" x="85" y="500.5442">etag</text><text fill="#D9B8FF" font-family="sans-serif" font-size="14" lengthAdjust="spacing" textLength="48" x="120" y="500.5442">: string</text><text fill="#D9B8FF" font-family="sans-serif" font-size="14" font-weight="bold" lengthAdjust="spacing" textLength="144" x="85" y="526.8411">provisioning_state</text><text fill="#D9B8FF" font-family="sans-serif" font-size="14" lengthAdjust="spacing" textLength="48" x="229" y="526.8411">: string</text></g><!--class resource--><g id="elem_resource"><rect codeLine="43" fill="#3D176E" height="310.7578" id="resource" rx="2.5" ry="2.5" style="stroke:#000D19;stroke-width:0.5;" width="227" x="67.5" y="7"/><ellipse cx="136.25" cy="26.8945" fill="#ADD1B2" rx="11" ry="11" style="stroke:#181818;stroke-width:1.0;"/><path d="M139.2188,32.5352 Q138.6406,32.832 138,32.9727 Q137.3594,33.1289 136.6563,33.1289 Q134.1563,33.1289 132.8281,31.4883 Q131.5156,29.832 131.5156,26.707 Q131.5156,23.582 132.8281,21.9258 Q134.1563,20.2695 136.6563,20.2695 Q137.3594,20.2695 138,20.4258 Q138.6563,20.582 139.2188,20.8789 L139.2188,23.5977 Q138.5938,23.0195 138,22.7539 Q137.4063,22.4727 136.7813,22.4727 Q135.4375,22.4727 134.75,23.5508 Q134.0625,24.6133 134.0625,26.707 Q134.0625,28.8008 134.75,29.8789 Q135.4375,30.9414 136.7813,30.9414 Q137.4063,30.9414 138,30.6758 Q138.5938,30.3945 139.2188,29.8164 L139.2188,32.5352 Z " fill="#000000"/><text fill="#D9B8FF" font-family="Helvetica" font-size="17" lengthAdjust="spacing" textLength="71" x="161.75" y="32.7798">resource</text><line style="stroke:#000D19;stroke-width:0.5;" x1="68.5" x2="293.5" y1="46.7891" y2="46.7891"/><text fill="#D9B8FF" font-family="sans-serif" font-size="14" font-weight="bold" lengthAdjust="spacing" textLength="29" x="78.5" y="68.7842">age</text><text fill="#D9B8FF" font-family="sans-serif" font-size="14" lengthAdjust="spacing" textLength="66" x="107.5" y="68.7842">: duration</text><text fill="#D9B8FF" font-family="sans-serif" font-size="14" font-weight="bold" lengthAdjust="spacing" textLength="43" x="78.5" y="95.0811">atime</text><text fill="#D9B8FF" font-family="sans-serif" font-size="14" lengthAdjust="spacing" textLength="70" x="121.5" y="95.0811">: datetime</text><text fill="#D9B8FF" font-family="sans-serif" font-size="14" font-weight="bold" lengthAdjust="spacing" textLength="43" x="78.5" y="121.3779">ctime</text><text fill="#D9B8FF" font-family="sans-serif" font-size="14" lengthAdjust="spacing" textLength="70" x="121.5" y="121.3779">: datetime</text><text fill="#D9B8FF" font-family="sans-serif" font-size="14" font-weight="bold" lengthAdjust="spacing" textLength="14" x="78.5" y="147.6748">id</text><text fill="#D9B8FF" font-family="sans-serif" font-size="14" lengthAdjust="spacing" textLength="48" x="92.5" y="147.6748">: string</text><text fill="#D9B8FF" font-family="sans-serif" font-size="14" font-weight="bold" lengthAdjust="spacing" textLength="33" x="78.5" y="173.9717">kind</text><text fill="#D9B8FF" font-family="sans-serif" font-size="14" lengthAdjust="spacing" textLength="48" x="111.5" y="173.9717">: string</text><text fill="#D9B8FF" font-family="sans-serif" font-size="14" font-weight="bold" lengthAdjust="spacing" textLength="90" x="78.5" y="200.2686">last_access</text><text fill="#D9B8FF" font-family="sans-serif" font-size="14" lengthAdjust="spacing" textLength="66" x="168.5" y="200.2686">: duration</text><text fill="#D9B8FF" font-family="sans-serif" font-size="14" font-weight="bold" lengthAdjust="spacing" textLength="90" x="78.5" y="226.5654">last_update</text><text fill="#D9B8FF" font-family="sans-serif" font-size="14" lengthAdjust="spacing" textLength="66" x="168.5" y="226.5654">: duration</text><text fill="#D9B8FF" font-family="sans-serif" font-size="14" font-weight="bold" lengthAdjust="spacing" textLength="48" x="78.5" y="252.8623">mtime</text><text fill="#D9B8FF" font-family="sans-serif" font-size="14" lengthAdjust="spacing" textLength="70" x="126.5" y="252.8623">: datetime</text><text fill="#D9B8FF" font-family="sans-serif" font-size="14" font-weight="bold" lengthAdjust="spacing" textLength="43" x="78.5" y="279.1592">name</text><text fill="#D9B8FF" font-family="sans-serif" font-size="14" lengthAdjust="spacing" textLength="48" x="121.5" y="279.1592">: string</text><text fill="#D9B8FF" font-family="sans-serif" font-size="14" font-weight="bold" lengthAdjust="spacing" textLength="34" x="78.5" y="305.4561">tags</text><text fill="#D9B8FF" font-family="sans-serif" font-size="14" lengthAdjust="spacing" textLength="171" x="112.5" y="305.4561">: dictionary[string, string]</text></g><!--link azure_key_vault_secret to azure_key_vault_attributes--><g id="link_azure_key_vault_secret_azure_key_vault_attributes"><path codeLine="55" d="M181,839.64 C181,858.77 181,873.25 181,893.22 " fill="none" id="azure_key_vault_secret-to-azure_key_vault_attributes" style="stroke:#FFAF37;stroke-width:2.0;"/><polygon fill="#FFAF37" points="181,899.22,185,890.22,181,894.22,177,890.22,181,899.22" style="stroke:#FFAF37;stroke-width:2.0;"/></g><!--reverse link microsoft_resource to azure_key_vault_secret--><g id="link_microsoft_resource_azure_key_vault_secret"><path codeLine="56" d="M181,557.55 C181,591.53 181,619.55 181,659.79 " fill="none" id="microsoft_resource-backto-azure_key_vault_secret" style="stroke:#FFAF37;stroke-width:2.0;"/><polygon fill="none" points="181,539.55,175,557.55,187,557.55,181,539.55" style="stroke:#FFAF37;stroke-width:2.0;"/></g><!--reverse link resource to microsoft_resource--><g id="link_resource_microsoft_resource"><path codeLine="57" d="M181,336.06 C181,379.65 181,405.98 181,438.42 " fill="none" id="resource-backto-microsoft_resource" style="stroke:#FFAF37;stroke-width:2.0;"/><polygon fill="none" points="181,318.06,175,336.06,187,336.06,181,318.06" style="stroke:#FFAF37;stroke-width:2.0;"/></g><!--SRC=[XPHDRzD048Rl-HKhzHPXAQ7GD0WXbKW8BXMYt12onhjZPnLxrveTEtM1_yvkt80_qriyxpCpxyoiijSA1HObDwB08a5o2tVGfWI2GjmHsUFEvfR4LPf2UhqPYf-iuHU1UoXGVCQyHjOIXiJtlPO7Wyw9rntf8yX3HhOogYtF1CPv2Grtg5qEpjqnaqugneuPjKrkqtH83ejUNQlrvWP7c2M5z8oiLYkrtWwH5rjTdFiVyQ2VKAoxIxktZ2ERenOdwgBBG7HCZWOzwxCUlu9IscJYRIVshVL41gaNVzY3iiT0fv2xRXl7I6YvAN4tcWgtjohTJC9Vvk253AiJy5GHnWTiuXggd6CuFm4dVYsMIqa8Z6gvV2UK_y6wG1z50qdUHXDhSmGJWe-b9XoIZwKb3dGVDaaQ0jhmpHl_IIXjZTJ4ETQO1yLv6oRpKbMgaOC_C-OTUh_S6lSNyIyy3ZlerMkPpfn1dT_2_uoAz5GX7uwFclUnz- -qDJscXhpgjZyRBxGawspACQ6p5KaycKQ6h9TVagrrgEe_OyT-_ebYlHAGjIUe2DZdXKXOsU0iSYAcLQ-rVqlzWE_b5oEb_tyPT3WfxPq6IZ7Hnq3HluWVkgsePKW3QdwqsgjdvgSVTURKKVJXql4czlp-TnH5CozdCQ36wOk_]--></g></svg>

<svg xmlns="http://www.w3.org/2000/svg" width="362" height="1138" viewBox="0 0 362 1138"><rect width="270" height="231.867" x="46" y="899.41" fill="#3D176E" rx="2.5" ry="2.5" style="stroke:#000d19;stroke-width:.5"/><circle cx="61" cy="919.304" r="11" fill="#ADD1B2" style="stroke:#181818;stroke-width:1"/><path d="M63.969 924.945q-.578.297-1.219.438-.64.156-1.344.156-2.5 0-3.828-1.64-1.312-1.657-1.312-4.782t1.312-4.781q1.328-1.657 3.828-1.657.703 0 1.344.157.656.156 1.219.453v2.719q-.625-.579-1.219-.844-.594-.281-1.219-.281-1.343 0-2.031 1.078-.687 1.062-.687 3.156t.687 3.172q.688 1.062 2.031 1.062.625 0 1.219-.265.594-.282 1.219-.86z"/><text x="80" y="925.19" fill="#D9B8FF" font-family="Helvetica" font-size="17" textLength="228">azure_key_vault_attributes</text><path d="M47 939.199h268" style="stroke:#000d19;stroke-width:.5"/><text x="57" y="961.194" fill="#D9B8FF" font-family="sans-serif" font-size="14" font-weight="bold" textLength="61">created</text><text x="118" y="961.194" fill="#D9B8FF" font-family="sans-serif" font-size="14" textLength="70">: datetime</text><text x="57" y="987.491" fill="#D9B8FF" font-family="sans-serif" font-size="14" font-weight="bold" textLength="63">enabled</text><text x="120" y="987.491" fill="#D9B8FF" font-family="sans-serif" font-size="14" textLength="65">: boolean</text><text x="57" y="1013.788" fill="#D9B8FF" font-family="sans-serif" font-size="14" font-weight="bold" textLength="50">expire</text><text x="107" y="1013.788" fill="#D9B8FF" font-family="sans-serif" font-size="14" textLength="70">: datetime</text><text x="57" y="1040.085" fill="#D9B8FF" font-family="sans-serif" font-size="14" font-weight="bold" textLength="85">exportable</text><text x="142" y="1040.085" fill="#D9B8FF" font-family="sans-serif" font-size="14" textLength="65">: boolean</text><text x="57" y="1066.382" fill="#D9B8FF" font-family="sans-serif" font-size="14" font-weight="bold" textLength="26">nbf</text><text x="83" y="1066.382" fill="#D9B8FF" font-family="sans-serif" font-size="14" textLength="44">: int64</text><text x="57" y="1092.679" fill="#D9B8FF" font-family="sans-serif" font-size="14" font-weight="bold" textLength="115">recovery_level</text><text x="172" y="1092.679" fill="#D9B8FF" font-family="sans-serif" font-size="14" textLength="48">: string</text><text x="57" y="1118.975" fill="#D9B8FF" font-family="sans-serif" font-size="14" font-weight="bold" textLength="65">updated</text><text x="122" y="1118.975" fill="#D9B8FF" font-family="sans-serif" font-size="14" textLength="70">: datetime</text><rect width="348" height="179.273" x="7" y="660.14" fill="#3D176E" rx="2.5" ry="2.5" style="stroke:#000d19;stroke-width:.5"/><circle cx="73.75" cy="680.034" r="11" fill="#ADD1B2" style="stroke:#181818;stroke-width:1"/><path d="M76.719 685.675q-.578.297-1.219.438-.64.156-1.344.156-2.5 0-3.828-1.64-1.312-1.657-1.312-4.782t1.312-4.781q1.328-1.657 3.828-1.657.703 0 1.344.157.656.156 1.219.453v2.719q-.625-.579-1.219-.844-.594-.281-1.219-.281-1.344 0-2.031 1.078-.687 1.062-.687 3.156t.687 3.172q.688 1.062 2.031 1.062.625 0 1.219-.265.594-.282 1.219-.86z"/><text x="99.25" y="685.92" fill="#D9B8FF" font-family="Helvetica" font-size="17" textLength="196">azure_key_vault_secret</text><path d="M8 699.929h346" style="stroke:#000d19;stroke-width:.5"/><text x="18" y="721.924" fill="#D9B8FF" font-family="sans-serif" font-size="14" font-weight="bold" textLength="103">content_type</text><text x="121" y="721.924" fill="#D9B8FF" font-family="sans-serif" font-size="14" textLength="48">: string</text><text x="18" y="748.221" fill="#D9B8FF" font-family="sans-serif" font-size="14" font-weight="bold" textLength="135">secret_attributes</text><text x="153" y="748.221" fill="#D9B8FF" font-family="sans-serif" font-size="14" textLength="191">: azure_key_vault_attributes</text><text x="18" y="774.518" fill="#D9B8FF" font-family="sans-serif" font-size="14" font-weight="bold" textLength="79">secret_uri</text><text x="97" y="774.518" fill="#D9B8FF" font-family="sans-serif" font-size="14" textLength="48">: string</text><text x="18" y="800.815" fill="#D9B8FF" font-family="sans-serif" font-size="14" font-weight="bold" textLength="186">secret_uri_with_version</text><text x="204" y="800.815" fill="#D9B8FF" font-family="sans-serif" font-size="14" textLength="48">: string</text><text x="18" y="827.112" fill="#D9B8FF" font-family="sans-serif" font-size="14" font-weight="bold" textLength="42">value</text><text x="60" y="827.112" fill="#D9B8FF" font-family="sans-serif" font-size="14" textLength="48">: string</text><rect width="214" height="100.383" x="74" y="438.76" fill="#3D176E" rx="2.5" ry="2.5" style="stroke:#000d19;stroke-width:.5"/><circle cx="95.3" cy="458.654" r="11" fill="#ADD1B2" style="stroke:#181818;stroke-width:1"/><path d="M98.269 464.295q-.578.297-1.219.438-.64.156-1.344.156-2.5 0-3.828-1.64-1.312-1.657-1.312-4.782t1.312-4.781q1.328-1.656 3.828-1.656.703 0 1.344.156.656.156 1.219.453v2.719q-.625-.579-1.219-.844-.594-.281-1.219-.281-1.344 0-2.031 1.078-.687 1.062-.687 3.156t.687 3.172q.688 1.062 2.031 1.062.625 0 1.219-.265.594-.281 1.219-.86z"/><text x="115.7" y="464.54" fill="#D9B8FF" font-family="Helvetica" font-size="17" textLength="158">microsoft_resource</text><path d="M75 478.549h212" style="stroke:#000d19;stroke-width:.5"/><text x="85" y="500.544" fill="#D9B8FF" font-family="sans-serif" font-size="14" font-weight="bold" textLength="35">etag</text><text x="120" y="500.544" fill="#D9B8FF" font-family="sans-serif" font-size="14" textLength="48">: string</text><text x="85" y="526.841" fill="#D9B8FF" font-family="sans-serif" font-size="14" font-weight="bold" textLength="144">provisioning_state</text><text x="229" y="526.841" fill="#D9B8FF" font-family="sans-serif" font-size="14" textLength="48">: string</text><rect width="227" height="310.758" x="67.5" y="7" fill="#3D176E" rx="2.5" ry="2.5" style="stroke:#000d19;stroke-width:.5"/><circle cx="136.25" cy="26.895" r="11" fill="#ADD1B2" style="stroke:#181818;stroke-width:1"/><path d="M139.219 32.535q-.578.297-1.219.438-.64.156-1.344.156-2.5 0-3.828-1.64-1.312-1.657-1.312-4.782t1.312-4.781q1.328-1.656 3.828-1.656.703 0 1.344.156.656.156 1.219.453v2.719q-.625-.578-1.219-.844-.594-.281-1.219-.281-1.344 0-2.031 1.078-.687 1.062-.687 3.156t.687 3.172q.688 1.062 2.031 1.062.625 0 1.219-.265.594-.281 1.219-.86z"/><text x="161.75" y="32.78" fill="#D9B8FF" font-family="Helvetica" font-size="17" textLength="71">resource</text><path d="M68.5 46.789h225" style="stroke:#000d19;stroke-width:.5"/><text x="78.5" y="68.784" fill="#D9B8FF" font-family="sans-serif" font-size="14" font-weight="bold" textLength="29">age</text><text x="107.5" y="68.784" fill="#D9B8FF" font-family="sans-serif" font-size="14" textLength="66">: duration</text><text x="78.5" y="95.081" fill="#D9B8FF" font-family="sans-serif" font-size="14" font-weight="bold" textLength="43">atime</text><text x="121.5" y="95.081" fill="#D9B8FF" font-family="sans-serif" font-size="14" textLength="70">: datetime</text><text x="78.5" y="121.378" fill="#D9B8FF" font-family="sans-serif" font-size="14" font-weight="bold" textLength="43">ctime</text><text x="121.5" y="121.378" fill="#D9B8FF" font-family="sans-serif" font-size="14" textLength="70">: datetime</text><text x="78.5" y="147.675" fill="#D9B8FF" font-family="sans-serif" font-size="14" font-weight="bold" textLength="14">id</text><text x="92.5" y="147.675" fill="#D9B8FF" font-family="sans-serif" font-size="14" textLength="48">: string</text><text x="78.5" y="173.972" fill="#D9B8FF" font-family="sans-serif" font-size="14" font-weight="bold" textLength="33">kind</text><text x="111.5" y="173.972" fill="#D9B8FF" font-family="sans-serif" font-size="14" textLength="48">: string</text><text x="78.5" y="200.269" fill="#D9B8FF" font-family="sans-serif" font-size="14" font-weight="bold" textLength="90">last_access</text><text x="168.5" y="200.269" fill="#D9B8FF" font-family="sans-serif" font-size="14" textLength="66">: duration</text><text x="78.5" y="226.565" fill="#D9B8FF" font-family="sans-serif" font-size="14" font-weight="bold" textLength="90">last_update</text><text x="168.5" y="226.565" fill="#D9B8FF" font-family="sans-serif" font-size="14" textLength="66">: duration</text><text x="78.5" y="252.862" fill="#D9B8FF" font-family="sans-serif" font-size="14" font-weight="bold" textLength="48">mtime</text><text x="126.5" y="252.862" fill="#D9B8FF" font-family="sans-serif" font-size="14" textLength="70">: datetime</text><text x="78.5" y="279.159" fill="#D9B8FF" font-family="sans-serif" font-size="14" font-weight="bold" textLength="43">name</text><text x="121.5" y="279.159" fill="#D9B8FF" font-family="sans-serif" font-size="14" textLength="48">: string</text><text x="78.5" y="305.456" fill="#D9B8FF" font-family="sans-serif" font-size="14" font-weight="bold" textLength="34">tags</text><text x="112.5" y="305.456" fill="#D9B8FF" font-family="sans-serif" font-size="14" textLength="171">: dictionary[string, string]</text><path fill="none" d="M181 839.64v53.58" style="stroke:#ffaf37;stroke-width:2"/><path fill="#FFAF37" d="m181 899.22 4-9-4 4-4-4z" style="stroke:#ffaf37;stroke-width:2"/><path fill="none" d="M181 557.55v102.24m0-120.24-6 18h12zm0-203.49v102.36m0-120.36-6 18h12z" style="stroke:#ffaf37;stroke-width:2"/></svg>
